X: 080927
T: Humours of Caledon
S: "First Collection of Traditional Irish Music" (M.Mulvihill)
Z: B.Black
L: 1/8
M: 9/8
R: slip jig
K: D
dDD FDF AFA|dDD FDf gfe|dDD FDF AGF|G/A/BG ECE GFE :|
d2 f fdf ecA|d2 g f/g/af gfe|d2 g fdf ece|=cBc E2F GFE :|
